X: 29388
T: Nia's
R: barndance
M: 4/4
K: Edorian
GF||E2 E2 D2 GA|B2 BA Bd dB|AG AB dB AG|E6 GF|
E2 DB, D2 GA|B2 BA Bd d2|ed ef g2 B2|A4 AB GF|
E2 E2 D2 GA|B2 BA Bd dB|dB de dB AG|E4 EAGF|
E2 DB, D2 GA|B2 BA Bd d2|ed ef g2 B2|A6 Bd||
gb ag f2 gf|ef ed BA GB|gb ag f2 gf|e4 ed ef|
gb ag f2 gf|ef ed BA GA|BA (3Bcd g2 B2|A6 (3Bcd|
gb ag f2 gf|ef ed BA GB|gb ag f2 gf|e4 ed ef|
gb ag f2 gf|ef ed BA GA|BA Bd g2 B2|AB dB AB GF||

